X:1
T:James Gibb editions
T:Victim divine, Thy grace we claim - Barnby
%%score [ ( 1 2 ) ( 3 4 ) ]
L:1/8
Q:1/4=84
M:3/4
K:Eb
V:1 treble nm="Midi_74"
V:2 treble 
V:3 bass nm="Midi_74"
V:4 bass 
V:1
"^Victim Divine (88. 88. 88)""^Charles Wesley\n(1707-88)""^Victim divine, Thy grace we claim""^Joseph Barnby\n(1838-96)" B2 A2 G2 | %1
 B4 A2 | (c2 B2) A2 | G6 || G2 =A2 A2 | (B2 d2) c2 | B4 =A2 | G4 || B2 | (B2 A2) G2 | B4 A2 | %11
 (c2- B2) A2 | G6 ||[M:3/4] e2 d2 c2 | B4 c2 | d4 =A2 | B6 || B2 e2 d2 | c4 B2 | (B2 A2) c2 | F4 || %21
 A2 | G4 B2 | (A2 G2) F2 | E4 F2 | E6 || E6 | E6 |] %28
V:2
 G2 F2 E2 | G4 F2 | (A2 G2) F2 | E6 || G2 G2 ^F2 | G4 G2 | G4 ^F2 | G4 || D2 | (E2- F2) G2 | %10
 G4 F2 | (A2 G2) F2 | E6 ||[M:3/4] G2 F2 E2 | D4 E2 | F4 E2 | D6 || E2 E2 G2 | C4 E2 | E4 E2 | %20
 D4 || F2 | E4 _D2 | C4 C2 | B,4 D2 | E6 || C6 | B,6 |] %28
V:3
 B,2 B,2 B,2 | C4 C2 | D4 B,2 | E6 || B,2 C2 D2 | (D2 F2) E2 | D4 C2 | B,4 || !courtesy!_A,2 | %9
 (G,2 B,2) E2 | C4 C2 | D4 D2 | E6 || %13
[M:3/4]"^1 Victim Divine, thy grace we claim\nwhile thus thy precious death we show:\nonce offered up, a spotless Lamb,\nin thy great temple here below,\nthou didst for all our kind atone,\nand standest now before the throne.\n\n2 Thou standest in the holiest place,\nas now for guilty sinners slain;\nthy blood of sprinkling speaks, and prays,\nall prevalent for helpless ones;\nthy blood is still our ransom found,\nand speaks salvation all around." G,2 =A,2 A,2 | %14
 B,4 B,2 | B,4 C2 | B,6 || B,2 B,2 =B,2 | C4 G,2 | (G,2 A,2) F,2 | %20
"^3 The smoke of thy atonement here\ndarkened the sun and rent the veil,\nmade the new way to heaven appear,\nand showed the great Invisible;\nwell pleased in thee our God looked down,\nand called his rebels to a crown.\n\n4 He still respects thy sacrifice,\nits savour sweet doth always please;\nthe offering smokes through earth and skies,\ndiffusing life, and joy, and peace;\nto these thy lower courts it comes,\nand fills them with divine perfumes." B,4 || %21
 B,2 | (B,2 G,2) E,2 | (C2 B,2) A,2 | G,4 A,2 | G,6 || A,6 | G,6 |] %28
V:4
 E,2 E,2 E,2 | E,4 E,2 | E,4 E,2 | E,6 || E,2 E,2 D,2 | G,2 C,4 | D,4 D,2 | G,4 || F,2 | E,4 E,2 | %10
 A,,4 A,,2 | B,,4 B,,2 | C,6 ||[M:3/4] C,2 F,2 F,2 | G,4 G,2 | F,4 F,2 | %16
 (B,4"^5 We need not go up to heaven,\nto bring the long-sought Saviour down;\nThou art to all already given,\nThou dost e’en now thy banquet crown:\nTo every faithful soul appear,\nand show thy real presence here!" !courtesy!_A,2) || %17
 G,2 G,2 F,2 | E,4 _D,2 | C,4 A,,2 | B,,4 || D,2 | E,4 G,,2 | A,,4 A,,2 | B,,4 B,,2 | E,6 || A,,6 | %27
 [E,,E,]6 |] %28

